assets/github.svg

<svg fill="none" height="30" viewBox="0 0 30 30" width="30" xmlns="http://www.w3.org/2000/svg"><path d="m27.9877 7.83758c-1.3414-2.29822-3.1608-4.11772-5.4588-5.45891-2.2984-1.34127-4.8075-2.011727-7.5291-2.011727-2.7214 0-5.23129.670667-7.52916 2.011727-2.29822 1.34113-4.11758 3.16069-5.45891 5.45891-1.341132 2.29812-2.01173 4.80772-2.01173 7.52872 0 3.2685.953599 6.2076 2.86128 8.8181 1.90747 2.6107 4.37164 4.4172 7.39232 5.4197.3516.0653.6119.0194.7811-.1365.1693-.1561.2539-.3516.2539-.5857 0-.0391-.0034-.3905-.0099-1.0546-.0067-.6642-.0098-1.2436-.0098-1.738l-.4492.0777c-.2865.0525-.6478.0747-1.08403.0684-.43602-.0061-.88868-.0518-1.35734-.1367-.46886-.0842-.90496-.2795-1.30863-.5855-.40347-.306-.68989-.7065-.8592-1.201l-.1953-.4494c-.13018-.2992-.33513-.6316-.61512-.996-.27999-.3647-.56313-.6119-.84955-.7421l-.13675-.0979c-.09112-.065-.17567-.1435-.25386-.2345-.07812-.0911-.13661-.1822-.17567-.2734-.03913-.0914-.0067-.1663.09762-.225.10432-.0588.29285-.0873.56641-.0873l.39047.0583c.26043.0522.58256.2081.9668.4687.38404.2603.69974.5988.94717 1.0153.29963.534.66061.9409 1.08399 1.2209.42303.28.84955.4197 1.27915.4197s.80064-.0326 1.11324-.0973c.3123-.0652.6053-.1631.8788-.2932.1172-.8727.4363-1.5432.9569-2.0118-.7421-.078-1.4092-.1955-2.0018-.3516-.59231-.1564-1.20435-.4102-1.83575-.7621-.63175-.3514-1.15582-.7878-1.57235-1.3084-.4166-.5208-.7585-1.2046-1.02522-2.0507-.26686-.8465-.40032-1.823-.40032-2.9297 0-1.5757.51442-2.9166 1.54307-4.0235-.48187-1.18466-.43638-2.51272.1366-3.98403.37761-.11732.9376-.02928 1.67968.26358.74222.29299 1.28569.54397 1.63079.75207.3452.20803.6218.38431.8302.52728 1.2111-.33841 2.461-.50765 3.7499-.50765 1.289 0 2.5391.16924 3.7503.50765l.7422-.46852c.5075-.31262 1.1068-.59911 1.7965-.85954.6901-.26029 1.2178-.33198 1.5825-.21466.5857 1.47137.6379 2.79937.1559 3.98402 1.0286 1.1069 1.5432 2.4481 1.5432 4.0235 0 1.1067-.1339 2.0863-.4004 2.9392-.2667.8531-.6116 1.5363-1.0346 2.0508-.4235.5145-.951.9475-1.5824 1.2988-.6315.3516-1.2437.6054-1.836.7618-.5925.1564-1.2597.2739-2.0018.352.6768.5857 1.0153 1.5102 1.0153 2.7732v4.1206c0 .2341.0814.4296.2443.5857.1628.1559.4198.2018.7714.1365 3.0211-1.0024 5.4853-2.8089 7.3927-5.4196 1.9072-2.6105 2.8611-5.5496 2.8611-8.8182-.0007-2.7206-.6716-5.23-2.0121-7.52812z" fill="#fff"/></svg>

<svg width="30" height="30" viewBox="0 0 30 30" fill="none" xmlns="http://www.w3.org/2000/svg">
<path d="M27.9877 7.83758C26.6463 5.53936 24.8269 3.71986 22.5289 2.37867C20.2305 1.0374 17.7214 0.366943 14.9998 0.366943C12.2784 0.366943 9.76851 1.03761 7.47064 2.37867C5.17242 3.7198 3.35306 5.53936 2.01173 7.83758C0.670598 10.1357 0 12.6453 0 15.3663C0 18.6348 0.953599 21.5739 2.86128 24.1844C4.76875 26.7951 7.23292 28.6016 10.2536 29.6041C10.6052 29.6694 10.8655 29.6235 11.0347 29.4676C11.204 29.3115 11.2886 29.116 11.2886 28.8819C11.2886 28.8428 11.2852 28.4914 11.2787 27.8273C11.272 27.1631 11.2689 26.5837 11.2689 26.0893L10.8197 26.167C10.5332 26.2195 10.1719 26.2417 9.73567 26.2354C9.29965 26.2293 8.84699 26.1836 8.37833 26.0987C7.90947 26.0145 7.47337 25.8192 7.0697 25.5132C6.66623 25.2072 6.37981 24.8067 6.2105 24.3122L6.0152 23.8628C5.88502 23.5636 5.68007 23.2312 5.40008 22.8668C5.12009 22.5021 4.83695 22.2549 4.55053 22.1247L4.41378 22.0268C4.32266 21.9618 4.23811 21.8833 4.15992 21.7923C4.0818 21.7012 4.02331 21.6101 3.98425 21.5189C3.94512 21.4275 3.97755 21.3526 4.08187 21.2939C4.18619 21.2351 4.37472 21.2066 4.64828 21.2066L5.03875 21.2649C5.29918 21.3171 5.62131 21.473 6.00555 21.7336C6.38959 21.9939 6.70529 22.3324 6.95272 22.7489C7.25235 23.2829 7.61333 23.6898 8.03671 23.9698C8.45974 24.2498 8.88626 24.3895 9.31586 24.3895C9.74546 24.3895 10.1165 24.3569 10.4291 24.2922C10.7414 24.227 11.0344 24.1291 11.3079 23.999C11.4251 23.1263 11.7442 22.4558 12.2648 21.9872C11.5227 21.9092 10.8556 21.7917 10.263 21.6356C9.67069 21.4792 9.05865 21.2254 8.42725 20.8735C7.7955 20.5221 7.27143 20.0857 6.8549 19.5651C6.4383 19.0443 6.0964 18.3605 5.82968 17.5144C5.56282 16.6679 5.42936 15.6914 5.42936 14.5847C5.42936 13.009 5.94378 11.6681 6.97243 10.5612C6.49056 9.37654 6.53605 8.04848 7.10903 6.57717C7.48664 6.45985 8.04663 6.54789 8.78871 6.84075C9.53093 7.13374 10.0744 7.38472 10.4195 7.59282C10.7647 7.80085 11.0413 7.97713 11.2497 8.1201C12.4608 7.78169 13.7107 7.61245 14.9996 7.61245C16.2886 7.61245 17.5387 7.78169 18.7499 8.1201L19.4921 7.65158C19.9996 7.33896 20.5989 7.05247 21.2886 6.79204C21.9787 6.53175 22.5064 6.46006 22.8711 6.57738C23.4568 8.04875 23.509 9.37675 23.027 10.5614C24.0556 11.6683 24.5702 13.0095 24.5702 14.5849C24.5702 15.6916 24.4363 16.6712 24.1698 17.5241C23.9031 18.3772 23.5582 19.0604 23.1352 19.5749C22.7117 20.0894 22.1842 20.5224 21.5528 20.8737C20.9213 21.2253 20.3091 21.4791 19.7168 21.6355C19.1243 21.7919 18.4571 21.9094 17.715 21.9875C18.3918 22.5732 18.7303 23.4977 18.7303 24.7607V28.8813C18.7303 29.1154 18.8117 29.3109 18.9746 29.467C19.1374 29.6229 19.3944 29.6688 19.746 29.6035C22.7671 28.6011 25.2313 26.7946 27.1387 24.1839C29.0459 21.5734 29.9998 18.6343 29.9998 15.3657C29.9991 12.6451 29.3282 10.1357 27.9877 7.83758Z" fill="white"/>
</svg>
